Newaita/actions/scalable/go-top.svg

<?xml version="1.0" encoding="UTF-8"?>
<svg xmlns="http://www.w3.org/2000/svg" xmlns:xlink="http://www.w3.org/1999/xlink" width="512pt" height="512pt" viewBox="0 0 512 512" version="1.1">
<g id="surface1">
<path style=" stroke:none;fill-rule:nonzero;fill:rgb(25.882354%,25.882354%,25.882354%);fill-opacity:1;" d="M 486.878906 258.023438 C 486.878906 129.023438 383.027344 25.167969 254.023438 25.167969 C 125.023438 25.167969 21.167969 129.023438 21.167969 258.023438 C 21.167969 387.027344 125.023438 490.878906 254.023438 490.878906 C 383.027344 490.878906 486.878906 387.027344 486.878906 258.023438 Z M 455.125 258.023438 C 455.125 369.433594 365.433594 459.125 254.023438 459.125 C 142.613281 459.125 52.921875 369.433594 52.921875 258.023438 C 52.921875 146.613281 142.613281 56.921875 254.023438 56.921875 C 365.433594 56.921875 455.125 146.613281 455.125 258.023438 Z M 455.125 258.023438 "/>
<path style=" stroke:none;fill-rule:nonzero;fill:rgb(14.901961%,65.098041%,60.392159%);fill-opacity:1;" d="M 368.382812 327.5625 C 368.382812 331.617188 366.828125 335.675781 363.71875 338.785156 C 357.5 345.007812 347.484375 345.007812 341.265625 338.785156 L 255.195312 252.71875 L 169.128906 338.785156 C 162.910156 345.007812 152.894531 345.007812 146.675781 338.785156 C 140.457031 332.566406 140.457031 322.554688 146.675781 316.332031 L 243.960938 219.050781 L 243.96875 219.039062 C 244.164062 218.84375 244.363281 218.65625 244.5625 218.472656 C 244.765625 218.292969 244.96875 218.117188 245.179688 217.945312 C 245.386719 217.773438 245.597656 217.609375 245.8125 217.453125 C 246.027344 217.296875 246.246094 217.144531 246.464844 216.996094 C 246.6875 216.851562 246.910156 216.710938 247.132812 216.578125 C 247.359375 216.445312 247.589844 216.316406 247.816406 216.195312 C 247.820312 216.195312 247.820312 216.195312 247.820312 216.195312 C 248.050781 216.074219 248.28125 215.957031 248.515625 215.851562 C 248.75 215.742188 248.988281 215.636719 249.226562 215.539062 C 249.464844 215.441406 249.707031 215.351562 249.949219 215.265625 C 250.191406 215.183594 250.433594 215.101562 250.679688 215.03125 C 250.925781 214.957031 251.171875 214.890625 251.421875 214.828125 C 251.667969 214.769531 251.917969 214.714844 252.167969 214.664062 C 252.417969 214.617188 252.667969 214.574219 252.917969 214.539062 C 252.921875 214.539062 252.921875 214.539062 252.921875 214.539062 C 253.171875 214.5 253.421875 214.472656 253.675781 214.445312 C 253.929688 214.421875 254.183594 214.40625 254.4375 214.390625 C 254.6875 214.378906 254.941406 214.375 255.195312 214.375 C 255.449219 214.375 255.703125 214.378906 255.957031 214.390625 C 256.210938 214.40625 256.464844 214.421875 256.714844 214.445312 C 256.714844 214.445312 256.714844 214.445312 256.71875 214.445312 C 256.96875 214.472656 257.222656 214.5 257.472656 214.539062 C 257.726562 214.574219 257.976562 214.617188 258.226562 214.664062 C 258.476562 214.714844 258.722656 214.769531 258.972656 214.828125 C 259.21875 214.890625 259.464844 214.957031 259.710938 215.03125 C 259.957031 215.101562 260.199219 215.183594 260.441406 215.265625 C 260.441406 215.265625 260.445312 215.265625 260.445312 215.265625 C 260.6875 215.351562 260.925781 215.441406 261.164062 215.539062 C 261.402344 215.636719 261.640625 215.742188 261.875 215.851562 C 262.109375 215.957031 262.34375 216.074219 262.574219 216.195312 C 262.804688 216.316406 263.03125 216.445312 263.257812 216.578125 C 263.484375 216.710938 263.707031 216.851562 263.925781 216.996094 C 263.925781 216.996094 263.929688 216.996094 263.929688 216.996094 C 264.148438 217.144531 264.363281 217.296875 264.578125 217.453125 C 264.578125 217.453125 264.578125 217.453125 264.582031 217.453125 C 264.792969 217.609375 265.003906 217.777344 265.214844 217.945312 C 265.421875 218.117188 265.628906 218.292969 265.828125 218.472656 C 266.03125 218.65625 266.226562 218.84375 266.421875 219.039062 L 266.433594 219.050781 L 363.71875 316.332031 C 366.828125 319.445312 368.382812 323.503906 368.382812 327.5625 Z M 368.382812 327.5625 "/>
<path style=" stroke:none;fill-rule:nonzero;fill:rgb(14.901961%,65.098041%,60.392159%);fill-opacity:1;" d="M 174.640625 199.796875 L 333.40625 199.796875 C 342.175781 199.796875 349.285156 192.6875 349.285156 183.921875 C 349.285156 175.152344 342.175781 168.042969 333.40625 168.042969 L 174.640625 168.042969 C 165.875 168.042969 158.765625 175.152344 158.765625 183.921875 C 158.765625 192.6875 165.875 199.796875 174.640625 199.796875 Z M 174.640625 199.796875 "/>
</g>
</svg>

<svg xmlns="http://www.w3.org/2000/svg" width="512pt" height="512pt" viewBox="0 0 512 512"><path d="M486.879 258.023c0-129-103.852-232.855-232.856-232.855-129 0-232.855 103.855-232.855 232.855 0 129.004 103.855 232.856 232.855 232.856 129.004 0 232.856-103.852 232.856-232.856zm-31.754 0c0 111.41-89.691 201.102-201.102 201.102-111.41 0-201.101-89.691-201.101-201.102 0-111.41 89.691-201.101 201.101-201.101s201.102 89.691 201.102 201.101zm0 0" fill="#424242"/><path d="M368.383 327.563c0 4.054-1.555 8.113-4.664 11.222a15.836 15.836 0 0 1-22.453 0l-86.07-86.066-86.067 86.066a15.836 15.836 0 0 1-22.453 0 15.843 15.843 0 0 1 0-22.453l97.285-97.281.008-.012c.195-.195.394-.383.594-.566.203-.18.406-.356.617-.528.207-.172.418-.336.632-.492.215-.156.434-.308.653-.457.222-.144.445-.285.668-.418.226-.133.457-.262.683-.383h.004c.23-.12.461-.238.696-.343.234-.11.472-.215.71-.313.239-.098.481-.187.723-.273.242-.082.485-.164.73-.235.247-.074.493-.14.743-.203.246-.058.496-.113.746-.164.25-.047.5-.09.75-.125h.004c.25-.039.5-.066.754-.094.254-.023.508-.039.762-.054.25-.012.503-.016.757-.016s.508.004.762.016c.254.015.508.03.758.054h.004c.25.028.504.055.754.094.254.035.504.078.754.125.25.05.496.106.746.164.246.063.492.129.738.203.246.07.488.153.73.235h.004a15.974 15.974 0 0 1 3.48 1.73h.005c.218.149.433.3.648.457h.004c.211.156.422.324.633.492a16.184 16.184 0 0 1 1.207 1.094l.012.012 97.285 97.281a15.842 15.842 0 0 1 4.664 11.23zm0 0M174.64 199.797h158.766c8.77 0 15.88-7.11 15.88-15.875 0-8.77-7.11-15.879-15.88-15.879H174.641c-8.766 0-15.875 7.11-15.875 15.879 0 8.766 7.109 15.875 15.875 15.875zm0 0" fill="#26a69a"/></svg>
